X: 99
T: Qiu n
%%abc-version 2.0
%%abcx-abcm2ps-target-version 5.9.1 (29 Sep 2008)
%%abc-creator hum2abc beta
%%abcx-conversion-date 2013/10/02 07:52:29
%%abc-edited-by Helmut Schaffrath
%%humdrum-veritas 949371910
%%humdrum-veritas-data 1659166427
%%continueall 1
%%barnumbers 0
L: 1/8
M: 2/4
K: F
G G G A [I:setbarnb 1]| 
c4 | 
c f c A | 
G4 | 
A2A A | 
G A G F | 
G FD2 | 
C4 | 
D2F2 | 
D2F2 | 
D2C2 | 
D4 | 
c c c d | 
c2A G | 
A GF2 | 
G3A | 
G FD2 | 
C4 |]  



